X: 37927
T: Sow's Lament For The Tatties
R: reel
M: 4/4
K: Dmajor
[FA][FA][FA][FA] [FA][FA][FA][FA]|[EA][EA][EA][EA] [EA][EA][EA][EA]|[FA][FA][FA][FA] [FA][FA][FA][FA]|[DA][DA][DA][DA] [DA][DA][DA][DA]|
[FA][FA][FA][FA] [FA][FA][FA][FA]|[EA][EA][EA][EA] [EA][EA][EA][EA]|DEFG A2 G2|F4 E4:|
|:A3A A2A2|EE2F G2E2|A3A A2A2|DEFG A2d2|
A3A A2A2|EE2F G2E2|1 DEFG A2 G2|F4 E4:|2 DEFG A2Bc|d4 d4||

